!!!!SEGMENT: pl-kk--kk-i-14--017_anonim--ave-mi-jesu.krn
!!!cenid: 17xx:2205
!!!COM: Anonim
!!!COM-rismID: pe30004985
!!!CDT:
!!!CNT:
!!!OTL: Ave mi Jesu
!!!PDT:
!!!AGN: Sacred
!!!SMS-siglum: PL-Kk
!!!SMS-shelfmark: Kk.I.14
!!!SMS-shelfwork: 017 W
!!!SMS-variant:
!!!SMS-altvar:
!!!NIFC-rismSourceID: 1001154375
!!!NIFC-rismChildID: 1001154411
!!!NIFC-islandoraID: pl-kk:2607
!!!URL-pdf-islandora: https://repozytorium.nifc.pl/islandora/object/pl-kk%3A2607/datastream/PDF/view
!!!URL-scan: https://polish.musicsources.pl/pl/lokalizacje/galeria/rekopisy/5768 @EN{Scan on Polish Music Sources Website} @PL{Skany w portalu Dziedzictwo Muzyki Polskiej w otwartym dostępie}
!!!IIIF:
!!!ONB-nifc: UWAGA: tylko w księdze B, skan 0021-0022.
!!!AIN: 1 empty
!!!key:
**kern	**text
*Iempty	*
*I"Baſſo.	*
*I'B	*
*clefF3	*
*k[]	*
*C:	*
*M2/1	*
*met(C|)	*
=1-	=1-
!LO:TX:a:t=UWAGA&colon;słowa bardzo nieczytelne i nie jestem ich pewna, ponieważ  nie było się na czym oprzeć ze względu na brak źródła. Problem zgłoszony na forum, u E.Z. i J.I.	!
4c\	Ave
4B\	mi
2c\	Je-
2G\	-ſu
4F\	x-
4G\	-i
=2-	=2-
2D/	.
2D/	quae
2G\	.
4.E/	D(o)-
8D/	-m(i)-
=3-	=3-
1C	-n(i)
*	*ij
2c\	D(o)-
4.A\	-m(i)-
8G\	-n(i)
*	*Xij
=4-	=4-
2F/	.
4F/	ge-
4C/	-nu-
2G\	-i-
2G\	-ſti
=5-	=5-
4C/	Cre-
4D/	-a-
4E/	-to-
4F/	-r(em)
4.G\	om-
8G\	-ni-
2G\	-(um)
=6-	=6-
*	*ij
!LO:LB:g=original	!
2.G\	Cre-
4A\	-a-
4B\	-to-
4c\	-r(em)
2.G\	om-
=7-	=7-
.	-ni-
4G\	-(um)
*	*Xij
1C	.
4C/	a-
4F/	-ve
=8-	=8-
2C/	Vir-
2G\	-go
4d\	glo-
4B\	-ri-
2c\	-o-
=9-	=9-
2G\	-ſa
4G\	in-
4c\	-(us)
2A\	ſpi-
2G\	-ces
=10-	=10-
4F/	Ve-
4E/	.
2D/	-rans
2C/	.
4F/	Ro-
4F/	-sa
=11-	=11-
4F/	Cae-
4E/	-li-
4.D/	-ta-
8D/	-tis
2D/	li-
!LO:LB:g=original	!
4G\	-li-
4F\	-(um)
=12-	=12-
*	*ij
4E/	Ve-
4D/	-rans
4.C/	Ro-
8C/	-sa
2C/	Cae-
4c\	-li-
4B\	-ta-
=13-	=13-
4A\	-tis
4F\	li-
4.G\	.
8G\	-li-
2C/	-(um)
*	*Xij
2r	.
=14-	=14-
4F/	pec-
4F/	-ca-
4D/	-to-
4D/	-reſ
4G\	ne
4G\	ab
4E/	hor-
4E/	-res
=15-	=15-
4A\	ſi-
4A\	-ne
4F\	qui-
4F\	-bus
4G\	numq
4G\	.
4C/	fo-
4C/	-res
=16-	=16-
2c\	di-
!LO:LB:g=original	!
2A\	-gna
4F\	tan-
4F\	-to
4.G\	Fi-
8G\	-li-
=17-	=17-
2C/	-o
*	*ij
2c\	di-
2A\	-gna
2F/	tan-
=18-	=18-
2F/	-to
2.G\	Fi-
4G\	-li-
1C/	-o
*	*Xij
=19-	=19-
.	.
4c\	Do-
4B\	-lo-
2c\	-ro-
2G\	-sa
=20-	=20-
4G\	Do-
4E/	-lo-
2D/	-ro-
2G\	-sa
0r	.
=21-	=21-
.	.
=22-	=22-
1r	.
4.c\	<.-
8G\	-..-
4A\	-..>
4E/	pos-
4.F\	-si-
8C/	-de-
=23-	=23-
2G\	-(am)
*	*ij
!LO:LB:g=original	!
4.c\	<.-
8G\	-..-
4.A\	-..>-
8E/	-pos-
4.F/	-si-
8F/	-de-
=24-	=24-
2C/	-(am)
*	*Xij
2r	.
1r	.
=25-	=25-
0r	.
=26-	=26-
0r	.
=27-	=27-
1r	.
2r	.
4c\	da
4B\	ut
=28-	=28-
4c\	to-
4G\	-t(us)
4.A\	ar-
8A\	-de-
2G\	-(am)
2r	.
=29-	=29-
2c\	da
4r	.
*	*ij
4G\	da
*	*Xij
2D/	ut
2F/	to-
=30-	=30-
2C/	-t(us)
4.E/	ar-
8E/	-de-
2A\	-am
*	*ij
2F/	ut
=31-	=31-
2D/	to-
4.E\	-t(us)
8F\	ar-
4.G\	-de-
8G\	-am
*	*Xij
!LO:LB:g=original	!
1C/	Pec-
=32-	=32-
.	.
4F/	.
4F/	-ca-
4D/	-to-
4D/	-reſ
4G\	non
4G\	ab-
=33-	=33-
4E/	-hor-
4E/	-reſ
4A\	fi-
4A\	-ne
4F/	qui-
4F/	-b(us)
4G\	nun-
4G\	-(quam)
=34-	=34-
4C/	for-
4C/	-res
2c\	tan-
2A\	-ti
4F/	Ma-
4F/	-ter
=35-	=35-
4.G\	Fi-
8G\	-li-
2C/	-j
*	*ij
2c\	tan-
2A\	-ti
=36-	=36-
4F\	Ma-
4F\	-ter
2.G\	Fi-
4G\	-li-
!LO:LB:g=original	!
1C/	-j
*	*Xij
=37-	=37-
.	.
4c\	Pi-
4B\	-a
2c\	M(a)-
4.G\	-t(er)
8F/	ne-
=38-	=38-
2E/	-de-
4.D/	-se-
8D/	.
2C/	-ras
2C/	pe-
=39-	=39-
4F/	-ren-
4E/	-ti-
4D/	-b(us)
4C/	.
4G\	o-
4A\	-pe
1G\	fe-
=40-	=40-
.	.
4r	.
4C/	-ras
4.F/	pe-
8E/	-ren-
4.D/	-ti-
8D/	-b(us)
=41-	=41-
*	*ij
4.G\	pe-
8F\	-ren-
4E/	-ti-
4E/	-b(us)
*	*Xij
4B\	.
8A\	.
*custos:F	*
8G\	.
!LO:PB:g=original	!
4F/	ope
4C/	.
=42-	=42-
2G\	fe-
4C/	-ras
2c\	an-
2A\	-ge-
2d\	.
=43-	=43-
.	.
4G\	.
4.c\	-lo-
8B\	.
4.A\	-ris
8A\	gau-
2G\	-dium
=44-	=44-
4r	.
*	*ij
4G\	an-
2.c\	-ge-
8E/	-lo-
8F/	-ris
2.G\	gau-
=45-	=45-
.	.
4G\	.
!LO:TX:t=P:problem=kreska pseudotaktowa	!
1C	-dium
*	*Xij
2.C/	o
=46-	=46-
.	.
4D/	.
2E/	dul-
2E/	-cis
2r	.
=47-	=47-
*	*ij
2A\	o
2F/	dul-
2C/	-cis
*	*Xij
2r	.
=48-	=48-
2C/	o
!LO:LB:g=original	!
2F/	dul-
2F/	-cis
2E/	Vir-
=49-	=49-
1G	-go
2G\	.
4r	.
4G\	o
=50-	=50-
2c\	pi-
4c\	-a
*	*ij
4c\	o
1A	pi-
=51-	=51-
4A\	-a
4A\	o
2F/	pi-
4F/	-a
4F/	o
2F/	pi-
=52-	=52-
4C/	-a
*	*Xij
2c\	es-
4B\	-to
2A\	no-
2G\	-bis
=53-	=53-
4r	.
*	*ij
2c\	es-
4B\	-to
2c\	no-
4G\	-bis
*	*Xij
4c\	p(ro)-
=54-	=54-
4.F/	-pi-
8F/	-ti-
2G\	-a
!LO:LB:g=original	!
4G\	in
4E/	Cae-
4D/	-le-
4C/	-sti-
=55-	=55-
4.G\	-a
8G\	Pal-
2C/	-ma
*	*ij
4C/	Cae-
4C/	-le-
4F\	-sti-
4C/	-a
=56-	=56-
4.G\	Pal-
8G\	-ma
*	*Xij
2C/	.
2r	.
4F/	Pec-
4F/	-ca-
=57-	=57-
4D/	-to-
4D/	-reſ
4G\	non
4G\	ab-
4E/	-hor-
4E/	-reſ
4A\	fi-
4A\	-ne
=58-	=58-
4F\	qui-
4F\	-b(us)
4G\	nun-
4G\	-(quam)
!LO:LB:g=original	!
4C/	fo-
4C/	-res
2c\	tan-
=59-	=59-
2A\	-ti
4F/	M(a)-
4F/	-t(e)r
4.G\	Fi-
8G\	-lij
*	*ij
2C/	fi-
=60-	=60-
2c\	-ne
2A\	qui-
2F/	-b(us)
2F/	nun-
=61-	=61-
2.G\	-(quam)
4G\	fo-
1C	-res
*	*Xij
=62-	=62-
4r	.
2F/	tan-
4E/	-ti
4F/	Ma-
4.F/	.
8G\L	-ter
8A\	.
8B\J	.
=63-	=63-
4c\	.
2.F/	fi-
!LO:LB:g=original	!
!LO:N:vis=0	!
1C;	-lii
=-	=-
*-	*-
!!!ENC: Marta Chmielewska
!!!END: 2021-07-15
!!!ENC: Anastazja Marusiak
!!!END: 2021-07-05
!!!YEC: Copyright 2022 Narodowy Instytut Fryderyka Chopina (https://polishscores.org)
!!!YEM: License CC-BY-4.0 (https://creativecommons.org/licenses/by/4.0)
